X:1
T:Memory
%%score { ( 1 3 5 ) | ( 2 4 6 7 ) }
L:1/8
Q:1/4=82
M:12/8
K:C
V:1 bass nm="立式钢琴" snm="Pno."
V:3 bass 
V:5 bass 
V:2 bass 
V:4 bass 
V:6 bass 
V:7 bass 
V:1
 C,G,E ECG, C,G,[K:treble]E G,EG, | c3 c3- c/ z/ Bc dcA | c3 c3- c/ z/ Bc dcG | %3
 A3 A3- A/ z/ FG AGF | E6- E z z z EG | G3 D2 E F2 G- GAB | cBA G6 E2 C |[Q:1/4=80] G6- G z z z3 | %8
[Q:1/4=82] .C3 z3 EGc ceg | c'3 c'3- c'/ z/ bc' d'c'a | c'3 c'3- c'/ z/ bc' d'c'g | %11
 a3 a3- a/ z/ fg agf | e6- e z z e2 g | g3 d2 e f2 g- gab | c'ba g6 e2 c | g6- g z z z3 | %16
 [Gc]6- [Gc] z z z3 | [EGB]3 [GBe]3 [FGB]3 [FA]3 | [EGB]3 [GBe]3 [FGB]3 [FA]3 || %19
[K:G] [EGB]3 [GBe]3 [Gce]3 d2 [cc'] |[K:bass] d3- d2- d/G,/- G,/ z/[K:treble] .G2 z .d2 | %21
[Q:1/4=85] [Beg]3 [Beg]3 [ceg]3/2[Begb]3/2- [Begb][Aea][ceg] | %22
 [Acdf]3 [Adfa]3 [FAd]3/2[Adf]3/2- [Adf]3/2 z/ [Gg] ||[K:D] z6 b3[K:bass][K:treble] z3 | %24
[Q:1/4=82] z/4 d'3/4-d'3/2 z/ .a6 z3 ||[K:C][Q:1/4=84] z/4 c'3/4-c'3/2 z/ c'3- c'/ z/ bc' d'c'a | %26
 c'3 a'/e'/c'/a/e/c/ Abc' d'c'g | a3 f'/c'/a/f/c/A/ Ffg agf | e6- e z z .e3 | %29
 g3 d2 e [df]3/2[dg]3/2 [da]3/2[db]3/2 | c'ba g6 .e3 |[Q:1/4=78] g3 g'/d'/b/g/d/B/ G2 A- A [Ac]2 | %32
[M:6/8][Q:1/4=85] [EGc][cc'][dd'] [ee'][ff'][gg'] ||[K:Ab][M:12/8] .[ac'e'a']3 z3 z6 | %34
[K:bass] z/ A,/[K:treble]C/F/A/c/ f/a/c'/f'/c'/a/ f/c/A/F/C/[K:bass]A,/ F,/A,/[K:treble]C/F/C/A,/ | %35
 D/F/A/d/f/a/ d'/f'/a'/d''/a'/f'/ d'/a/f/d/A/F/ D/F/A/d/A/F/ | %36
 C/E/G/c/e/g/ c'/e'/g'/c''/g'/e'/ c'/g/e/c/(3G z/4 c/4- c2 z/ [ee']/ | %37
 [ee']3 [Bb]2 [cc'] [dd']2 [ee']- [ee'][ff'][gg'] | [ac'f'a'][gg'][ff'] [ee']6 c'2 [Aa] | %39
[M:15/8][K:bass][Q:1/4=82] e'3- e'/ z/ z2[K:treble][K:bass] z3[K:treble] z6 | %40
[M:12/8][Q:1/4=75] z/16 a3/16-a3/4-a z z3 z3 z2 a'- | a'3- a'/ z/ e'2- e'3- e'2 z |] %42
V:2
 z12 | C,G,C ECG, C,G,C ECG, | A,,E,A, CA,E, A,,E,A, CA,E, | F,,C,F, A,F,C, F,,C,F, A,F,C, | %4
 E,,B,,E, G,E,B,, E,,B,,E, G,E,B,, | D,,A,,D, F,D,A,, D,,A,,D, F,A,D | %6
 A,,E,A, CA,E, A,,E,A, CA,E, | G,,D,G, B,G,D, z2 A,- A,A,C | z2 C- C C2 z6 | %9
 C,G,C ECG, C,G,C ECG, | A,,E,A, CA,E, A,,E,A, CA,E, | F,,C,F, A,F,C, F,,C,F, A,F,C, | %12
 E,,B,,E, G,E,B,, E,,B,,E, G,B,E | D,A,[K:treble]D FD[K:bass]A, D,A,[K:treble]D FD[K:bass]A, | %14
 A,,E,A, CA,E, A,,E,A, CA,E, | G,,D,G, B,G,D, z3[K:treble] C3/2F3/2 |[K:bass] z3 .E6[K:treble] z3 | %17
[K:bass] E,,/B,,/E,/G,/E,/B,,/ E,,/B,,/E,/G,/E,/B,,/ F,,/C,/F,/A,/F,/C,/ F,,/C,/F,/A,/F,/C,/ | %18
 E,,/B,,/E,/G,/E,/B,,/ E,,/B,,/E,/G,/E,/B,,/ F,,/C,/F,/A,/F,/C,/ F,,/C,/F,/A,/F,/C,/ || %19
[K:G] E,,/B,,/E,/G,/E,/B,,/ E,,/B,,/E,/G,/E,/B,,/ C,/E,/G,/C/G,/E,/ D,/F,/A,/D/A,/F,/ | %20
[K:treble] z/8 B3/8-B/- B2- B2- B/[K:bass] z/ z z z/ z/4 D/4- D/ z/ z z | %21
 E,,/B,,/E,/G,/E,/B,,/ E,,/B,,/E,/G,/E,/B,,/ A,,/E,/A,/C/A,/E,/ A,,/E,/A,/C/A,/E,/ | %22
 D,/F,/A,/D/A,/F,/ D,/F,/A,/D/A,/F,/ D,/F,/A,/C/A,/F,/ D,/F,/A,/D/A,/F,/ || %23
[K:D] z3 z z z/ z/4[K:treble] z/8 e/8- e2- e/ z/[K:bass] z3 | %24
 D,,/A,,/D,/F,/D,/A,,/ D,,/A,,/D,/F,/D,/A,,/ D,,/A,,/D,/F,/A,/[K:treble]D/ F/A/d/f/a/d'/ || %25
[K:C][K:bass] C,G,C ECG, C,G,C ECG, | A,,E,A, CA,E, A,,E,A, CA,E, | F,,C,F, A,F,C, F,,C,F, A,F,C, | %28
 z6 z3 z z/[K:treble] g3/2 | %29
[K:bass] D,A,[K:treble]D FDA, [A,D]3/2[K:bass][A,D]3/2 [A,D]3/2[A,D]3/2 | %30
 z6 z3[K:treble] z z/ c3/2[K:bass] | G,,D,G, B,G,D, G,,2[K:treble] [G,DF]- [G,DF] [G,CF]2 | %32
[M:6/8][K:bass] [C,,C,][C,,C,][C,,C,] [C,,C,][C,,C,][C,,C,] || %33
[K:Ab][M:12/8] A,/[K:treble]C/E/A/c/e/ a/c'/e'/a'/e'/c'/ a/e/c/A/E/C/ A,/C/E/A/c/e/ | %34
[K:bass] .F,,3 z3 z6 | .[D,,D,]3 z3 z6 | .[C,,C,]3 z3 z3[K:treble] C/E/G/c/G/E/ | %37
[K:bass] B,,/F,/B,/D/B,/F,/ B,,/F,/B,/D/B,/F,/ B,,/F,/B,/D/B,/F,/ B,,/F,/B,/D/B,/F,/ | %38
 F,,/C,/F,/A,/F,/C,/ F,,/C,/F,/A,/F,/C,/ F,,/C,/F,/A,/(3F, z/4[K:treble] c/4- c>[K:bass]A,F,/C,/ | %39
[M:15/8][K:treble] z/8 b3/8-b/- b2- b/ z/ z2 z3[K:bass] z6[K:treble] |[M:12/8] .c3[K:bass] z3 z6 | %41
 z3 z/[K:treble] z/4 z/16 c'3/16- c'2- c'3- c'2 z |] %42
V:3
 x8[K:treble] x4 | x12 | x12 | x12 | x12 | x12 | x12 | z6 [D,F,]6 | x12 | x12 | x12 | x12 | x12 | %13
 x12 | x12 | z6 z3 [FA]3/2[Ac]3/2 | E3 z3 z6 | x12 | x12 ||[K:G] z6 z z z/ z/4 z/8 A/8- A3/2 z/ z | %20
[K:bass] z/ B,,/D,/G,/D,/B,,/ G,,/B,,/D,/G,/D,/B,,/ (4:3:6DB,/[K:treble]D/D/-[D-G]/[DB] (4:3:6BG/B/B/-[B-d]/[Bg] | %21
 x12 | x12 || %23
[K:D] [Begb]3- [Begb]/ z/ [Begb][Begb] z/[K:bass] B,,/E,/G,/E,/B,,/[K:treble] [cegc']3 | %24
 z/8 f3/8-f-<f z/4 z/8 d/8- d3- d/ z/ z z z3 ||[K:C] z/8 g3/8-g-<g z/ z3 z6 | x12 | x12 | x12 | %29
 x12 | x12 | x12 |[M:6/8] x6 ||[K:Ab][M:12/8] x12 | %34
[K:bass] .F,3[K:treble] z3 z6[K:bass][K:treble] | x12 | z6 z z z/ E/ .c'3 | x12 | x12 | %39
[M:15/8][K:bass] z/ B,,/E,/G,/E,/B,,/E,,/B,,/E,/B,/[K:treble]E/G/[K:bass]E,/B,/[K:treble]E/G/B/e/ [G,DF]2 [df] [Adfa]3 | %40
[M:12/8] z E,A, CEA cea c' .e'2 | z3 z z/16 a'3/16-a'3/4-a'- a'3- a'2 z |] %42
V:4
 x12 | x12 | x12 | x12 | x12 | x12 | x12 | z6 G,,6 | C, .G,2 .E2 G, C,G,C ECG, | x12 | x12 | x12 | %12
 x12 | x2[K:treble] x3[K:bass] x3[K:treble] x3[K:bass] x | x12 | z6 G,,,6[K:treble] | %16
[K:bass] C,G,C z CG, C,G,[K:treble]C EGc |[K:bass] x12 | x12 ||[K:G] x12 | %20
[K:treble] z6[K:bass] z z z/ z/4 z/8 G/8- G z z | x12 | x12 || %23
[K:D] z3 z z z/ z/4[K:treble] B/4- B2- B/ z/[K:bass] z3 | x17/2[K:treble] x7/2 || %25
[K:C][K:bass] x12 | x12 | x12 | z6 z3 z .B,2[K:treble] |[K:bass] x2[K:treble] x11/2[K:bass] x9/2 | %30
 z6 z3[K:treble] z .A,2[K:bass] | x8[K:treble] x4 |[M:6/8][K:bass] x6 || %33
[K:Ab][M:12/8] x/[K:treble] x23/2 |[K:bass] x12 | x12 | x9[K:treble] x3 |[K:bass] x12 | %38
 z6 z z z/ C,/[K:treble] F,,/[K:bass]C,/ .F,2 | %39
[M:15/8][K:treble] e3- e/ z/ z2 z3[K:bass] z3 z z z/[K:treble] A/- |[M:12/8] A3[K:bass] z3 z6 | %41
 z3 z/[K:treble] a/- a2- a3- a2 z |] %42
V:5
 x8[K:treble] x4 | x12 | x12 | x12 | x12 | x12 | x12 | x12 | x12 | x12 | x12 | x12 | x12 | x12 | %14
 x12 | z6 G,,6 | x12 | x12 | x12 ||[K:G] z6 z z z/ F/- F3/2 z/ z |[K:bass] x7[K:treble] x5 | x12 | %22
 x12 ||[K:D] x13/2[K:bass] x5/2[K:treble] x3 | d2- d/A/- A3- A/ z/ z z z3 ||[K:C] c3 z3 z6 | x12 | %27
 x12 | x12 | x12 | x12 | x12 |[M:6/8] x6 ||[K:Ab][M:12/8] x12 | %34
[K:bass] x[K:treble] x15/2[K:bass] x3/2[K:treble] x2 | x12 | x12 | x12 | x12 | %39
[M:15/8][K:bass] x5[K:treble] x[K:bass] x[K:treble] x8 |[M:12/8] .e3 z3 z6 | A,,12 |] %42
V:6
 x12 | x12 | x12 | x12 | x12 | x12 | x12 | x12 | x12 | x12 | x12 | x12 | x12 | %13
 x2[K:treble] x3[K:bass] x3[K:treble] x3[K:bass] x | x12 | x9[K:treble] x3 | %16
[K:bass] x8[K:treble] x4 |[K:bass] x12 | x12 ||[K:G] x12 | %20
[K:treble] G3- G2 z/[K:bass] B,/- B, z D, z3 | x12 | x12 || %23
[K:D] E,,/B,,/E,/G,/E,/B,,/ E,,/B,,/E,/G,/.E,[K:treble] .E,,3[K:bass] A,,/E,/A,/C/A,/E,/ | %24
 x17/2[K:treble] x7/2 ||[K:C][K:bass] x12 | x12 | x12 | %28
 E,,B,,E, G,E,B,, E,,B,,E, .G,2[K:treble] E |[K:bass] x2[K:treble] x11/2[K:bass] x9/2 | %30
 A,,E,A, CA,E, A,,E,A,[K:treble] .C2[K:bass] E, | x8[K:treble] x4 |[M:6/8][K:bass] x6 || %33
[K:Ab][M:12/8] x/[K:treble] x23/2 |[K:bass] x12 | x12 | x9[K:treble] x3 |[K:bass] x12 | %38
 x53/6[K:treble] x2/3[K:bass] x5/2 | %39
[M:15/8][K:treble] z/4 .E,,3/4 z2 z6[K:bass] [E,,E,]3 [D,A,D]3[K:treble] | %40
[M:12/8] z/16[K:bass] A,,3/16-A,,3/4 z z z3 z6 | A,,,12[K:treble] |] %42
V:7
 x12 | x12 | x12 | x12 | x12 | x12 | x12 | x12 | x12 | x12 | x12 | x12 | x12 | %13
 x2[K:treble] x3[K:bass] x3[K:treble] x3[K:bass] x | x12 | x9[K:treble] x3 | %16
[K:bass] x8[K:treble] x4 |[K:bass] x12 | x12 ||[K:G] x12 | %20
[K:treble] z/4 .G,,3/4 z z z3[K:bass] G,, .B,,2 B,,D,G, | x12 | x12 || %23
[K:D] z3 z z z/ B,,/[K:treble] z6[K:bass] | x17/2[K:treble] x7/2 ||[K:C][K:bass] x12 | x12 | x12 | %28
 x21/2[K:treble] x3/2 |[K:bass] x2[K:treble] x11/2[K:bass] x9/2 | x9[K:treble] x2[K:bass] x | %31
 x8[K:treble] x4 |[M:6/8][K:bass] x6 ||[K:Ab][M:12/8] x/[K:treble] x23/2 |[K:bass] x12 | x12 | %36
 x9[K:treble] x3 |[K:bass] x12 | x53/6[K:treble] x2/3[K:bass] x5/2 | %39
[M:15/8][K:treble] x9[K:bass] x11/2[K:treble] x/ |[M:12/8][K:bass] x191/16 | %41
 x7/2[K:treble] x17/2 |] %42

